X: 44
T:Loch Leven Castle
M: C|
R:reel
Q:1/2=120
L:1/8
K: Ador
cB| "Am"A2AB AGEG |"Am" AGAB cBcd | "C"eaga gede |"C" c2G2 G2cB | "Am"A2AB AGEG |
"Am" AGAB cBcd | "G"eaga gede | "Am"c2A2 A2 :| eg | "Am"a2ab ageg | "Am"agab a2ge |
 "Dm"dega "C"gede | c2G2 G2eg | "Am"a2ab ageg | "Am"agab a2ge |
 "Dm"dega "E7"gede | "Am"c2A2 A2ea | "Am"a2ab ageg | "Am"agab agef |
 "Em"gfga gede | "C"c2G2 G2cB | "Am"A2AB AGEG |"Am" AGAB cBcd | "Am"ea^ga "G"=gede | "Am"c2A2 A2 |]
%%newpage
